lib/assets/icons/svg/outlined-action-selectedalllines.svg

<svg xmlns="http://www.w3.org/2000/svg" viewBox="0 0 24 24"><path d="M20.354 6.849H7.994a.5.5 0 0 1 0-1h12.36a.5.5 0 0 1 0 1zm-14.47-1.91a.5.5 0 0 1 .71 0 .51.51 0 0 1 0 .71l-1.58 1.64a.507.507 0 0 1-.37.14.458.458 0 0 1-.34-.14l-1-1a.5.5 0 0 1 .7-.71l.647.647zm14.47 7.8H7.994a.5.5 0 0 1 0-1h12.36a.5.5 0 0 1 .5.5.51.51 0 0 1-.5.5zm-16.06.41a.576.576 0 0 1-.056-.066l-.944-.944a.5.5 0 0 1 0-.71.48.48 0 0 1 .7 0l.65.65 1.24-1.28a.5.5 0 0 1 .72.69l-1.59 1.68a.514.514 0 0 1-.37.12.515.515 0 0 1-.35-.14zm16.06 5.47H7.994a.5.5 0 0 1 0-1h12.36a.51.51 0 0 1 .5.5.5.5 0 0 1-.5.5zm-16.06.45a.576.576 0 0 1-.056-.066l-.944-.944a.495.495 0 0 1 .7-.7l.645.645 1.245-1.285a.5.5 0 0 1 .71 0 .51.51 0 0 1 0 .71l-1.58 1.62a.479.479 0 0 1-.37.16.515.515 0 0 1-.35-.14z"/></svg>

<svg viewBox="0 0 24 24" xmlns="http://www.w3.org/2000/svg">
  <path  d="M 20.354 6.849 L 7.994 6.849 C 7.609 6.849 7.369 6.432 7.561 6.099 C 7.65 5.944 7.815 5.849 7.994 5.849 L 20.354 5.849 C 20.739 5.849 20.979 6.266 20.787 6.599 C 20.698 6.754 20.533 6.849 20.354 6.849 Z M 5.884 4.939 C 6.08 4.742 6.398 4.742 6.594 4.939 C 6.786 5.137 6.786 5.451 6.594 5.649 L 5.014 7.289 C 4.959 7.342 4.894 7.38 4.823 7.404 C 4.766 7.423 4.705 7.432 4.644 7.429 C 4.516 7.432 4.393 7.381 4.304 7.289 L 3.304 6.289 C 3.107 6.093 3.107 5.775 3.304 5.579 C 3.498 5.388 3.81 5.388 4.004 5.579 L 4.651 6.226 Z M 20.354 12.739 L 7.994 12.739 C 7.718 12.739 7.494 12.515 7.494 12.239 C 7.494 11.963 7.718 11.739 7.994 11.739 L 20.354 11.739 C 20.63 11.739 20.854 11.963 20.854 12.239 C 20.849 12.513 20.628 12.734 20.354 12.739 Z M 4.294 13.149 C 4.273 13.128 4.255 13.106 4.238 13.083 L 3.294 12.139 C 3.097 11.943 3.097 11.625 3.294 11.429 C 3.484 11.227 3.804 11.227 3.994 11.429 L 4.644 12.079 L 5.884 10.799 C 6.17 10.542 6.628 10.691 6.707 11.067 C 6.739 11.216 6.701 11.371 6.604 11.489 L 5.014 13.169 C 4.911 13.256 4.778 13.299 4.644 13.289 C 4.572 13.29 4.503 13.275 4.439 13.245 C 4.386 13.222 4.337 13.189 4.294 13.149 Z M 20.354 18.619 L 7.994 18.619 C 7.718 18.619 7.494 18.395 7.494 18.119 C 7.494 17.843 7.718 17.619 7.994 17.619 L 20.354 17.619 C 20.628 17.624 20.849 17.845 20.854 18.119 C 20.854 18.395 20.63 18.619 20.354 18.619 Z M 4.294 19.069 C 4.273 19.048 4.255 19.026 4.238 19.003 L 3.294 18.059 C 3.025 17.79 3.148 17.33 3.516 17.231 C 3.687 17.185 3.869 17.234 3.994 17.359 L 4.639 18.004 L 5.884 16.719 C 6.08 16.522 6.398 16.522 6.594 16.719 C 6.786 16.917 6.786 17.231 6.594 17.429 L 5.014 19.049 C 4.92 19.154 4.785 19.213 4.644 19.209 C 4.572 19.21 4.503 19.195 4.439 19.165 C 4.386 19.142 4.337 19.109 4.294 19.069 Z"/>
</svg>
